X: 1437
T: Ne Doğan Güne Hükmüm Geçer
C: Münir Nurettin Selçuk
O: Turkey
F: http://compmusic.upf.edu/node/140
N: mahur--sarki--sofyan--ne_dogan--munir_nurettin_selcuk
N: makam= mahur
N: form= sarki
N: usul= sofyan = 4/4
M: 4/4
L: 1/16
K: C ^9/8f   
Q: 1/4=72
%%MIDI tuningsystem comma53
.b2.g2 .a2.f2 .g2.f2 baga  | g4 d4 B4 G4  | \
w:  ARANAĞME  |   | 
.a2.f2 .g2.e2 .f2.e2 gfef  | 
w:   | 
d4 B4 G4 d4  | d2g4f2 e2d2 c2d2  | e2f4e2 d2A2 B2c2  | \
w:   |   |   | 
.d2.B2 .c2.A2 .B2.G2 AGFA  | 
w:   | 
G14z2  | e2f2 g4 f2{a}g4z2  | c'3b b3a a2b4ag  | \
w:   |  Ne  do ğan  gü *  ne   |  hük *  müm  *  *  *  ge  | 
g14z2  | g2{g}a4ag g6gf  | 
w:  çer   |  ne  *  hal den  *  an la  | 
^3/4f3e e2ed d6z2  | g2f4d2 e2d2 g2z2  | \
w:  yan  *  bu lu *  nur    |  SAZ  | 
e2f2 g4 f2{a}g4z2  | c'3b b3a a2b4ag  | 
w:  Ne  do ğan  gü *  ne   |  hük *  müm  *  *  *  ge  | 
g14z2  | g2{g}a4ag g6gf  | ^3/4f3e e2ed d6z2  | \
w:  çer   |  ne  *  hal den  *  an la  |  yan  *  bu lu *  nur    | 
c'8 c'2b4a2  | a4 a2ba a4 z2c'2  | 
w:  SAZ  |  Ak lım *  *  dan  ö  | 
b2a4g2 g3f e2f2  | g8 G/A/B/c/d/e/f/g/ A/B/c/d/e/f/g/a/  | 
w:  lü *  *  müm  *  *  ge  |  çer  SAZ  | 
.b2.g2 .a2.f2 .g2.f2 agfa  | g14z2  | \
w:  SAZ  |   | 
z2g2 f2g2 a2c'2 b2a2  | a8 g2f2 a2z2  | 
w:  Son *  ra  bu  bah  |  çe  SAZ  | 
g2e4z2 =fed4z2  | .G2.B2 .d2z2 d2d2 a3g  | \
w:  bu  kuş  bu  *  nûr    |  SAZ *  *  Ve  gö nül   | 
g3=f f2fe e3d c3d  | 
w:  tan *  rı sı *  na  *  der   | 
e8 .e2.a2 .e2z2  | d4 =f3e e3d d4  | \
w:  ki  SAZ  |  per vâm  *  yok  *  ver  | 
d2=f2 e2d2 cBcd B4  | c3d B4 cBcd B4  | 
w:  di ğin  *  e lem *  *  *  den    |  SAZ  | 
d4 d4 d6d2  | e2f2 g2z2 .d4 .g2z2  | \
w:  Her  mih net  ka  |  bu *  lüm  SAZ  | 
d2a2 g2=f2 e3d d3c  | c3B c2e2 d6z2  | 
w:  ye ter  *  ki  gün_ *  ek  |  sil *  *  me sin   | 
B6c2 B2A4B2  | G2B2 G2A2 F2G2 FGAF  | \
w:  pen ce rem  |  den   SAZ  | 
G12 z4  | |


